rospo-icon-theme-classic-common/24x24/apps/fiji.svg

<svg height="24" width="24" xmlns="http://www.w3.org/2000/svg"><rect height="20" opacity=".2" rx="1" transform="matrix(0 -1 -1 0 0 0)" width="20" x="-22.5" y="-22"/><rect fill="#4f4f4f" height="20" rx="1" transform="matrix(0 -1 -1 0 0 0)" width="20" x="-22" y="-22"/><path d="m3 2c-.554 0-1 .446-1 1v .5c0-.554.446-1 1-1h18c .554 0 1 .446 1 1v-.5c0-.554-.446-1-1-1z" fill="#fff" opacity=".1"/><path d="m5 5.5v2.5 11.5h2v-12h12v-2h-11.5zm4 4v6h2v-6zm4 0v8h-4v2h6v-2-8zm4 0v10h2v-10z" opacity=".2"/><path d="m5 5v2.5 11.5h2v-12h12v-2h-11.5zm4 4v6h2v-6zm4 0v8h-4v2h6v-2-8zm4 0v10h2v-10z" fill="#3693ee"/><path d="m5 5v .5h2.5 11.5v-.5h-11.5zm4 4v .5h2v-.5zm4 0v .5h2v-.5zm4 0v .5h2v-.5zm-8 8v .5h4v-.5z" fill="#fff" opacity=".2"/></svg>

<svg xmlns="http://www.w3.org/2000/svg" width="24" height="24" version="1">
 <rect style="opacity:0.2" width="20" height="20" x="-22.5" y="-22" rx="1" ry="1" transform="matrix(0,-1,-1,0,0,0)"/>
 <rect style="fill:#4f4f4f" width="20" height="20" x="-22" y="-22" rx="1" ry="1" transform="matrix(0,-1,-1,0,0,0)"/>
 <path style="opacity:0.1;fill:#ffffff" d="M 3,2 C 2.446,2 2,2.446 2,3 l 0,0.5 c 0,-0.554 0.446,-1 1,-1 l 18,0 c 0.554,0 1,0.446 1,1 L 22,3 C 22,2.446 21.554,2 21,2 L 3,2 Z"/>
 <path d="m 5,5.5 0,2.5 0,11.5 2,0 0,-12 12,0 0,-2 -11.5,0 z m 4,4 0,6 2,0 0,-6 z m 4,0 0,8 -4,0 0,2 6,0 0,-2 0,-8 z m 4,0 0,10 2,0 0,-10 z" style="opacity:0.2"/>
 <path style="fill:#3693ee" d="M 5,5 5,7.5 5,19 7,19 7,7 19,7 19,5 7.5,5 Z m 4,4 0,6 2,0 0,-6 z m 4,0 0,8 -4,0 0,2 6,0 0,-2 0,-8 z m 4,0 0,10 2,0 0,-10 z"/>
 <path style="opacity:0.2;fill:#ffffff" d="M 5 5 L 5 5.5 L 7.5 5.5 L 19 5.5 L 19 5 L 7.5 5 L 5 5 z M 9 9 L 9 9.5 L 11 9.5 L 11 9 L 9 9 z M 13 9 L 13 9.5 L 15 9.5 L 15 9 L 13 9 z M 17 9 L 17 9.5 L 19 9.5 L 19 9 L 17 9 z M 9 17 L 9 17.5 L 13 17.5 L 13 17 L 9 17 z"/>
</svg>
